app/dist/common/images/solutiance-ag.svg

<svg height="18" viewBox="0 0 18 18" width="18" xmlns="http://www.w3.org/2000/svg"><path d="m0 0h18v18h-18z" fill="#f0f3fa"/><path d="m5 9.18v5.32l4-2.7v-5.2l-4 2.57z" fill="#4cbcc7"/><path d="m11 7.73-4.32 2.62 4.17 2.6 4.15-2.6z" fill="#9a90c5"/><path d="m9 8.94-2.32 1.4 2.32 1.46z" fill="#18759e"/><path d="m7 8.21 4 2.6v-5.2l-3.98-2.61z" fill="#d2d92b"/><path d="m9 9.59-2-1.38v-.33l2-1.28v3z" fill="#50ae3c"/><path d="m11 7.73-2.52 1.53 2.52 1.57z" fill="#7e843b"/><path d="m9 8.94v.65l-.52-.33z" fill="#04663f"/></svg>

<!-- by TradingView --><svg width="18" height="18" viewBox="0 0 18 18" xmlns="http://www.w3.org/2000/svg"><path fill="#F0F3FA" d="M0 0h18v18H0z"/><path d="M5 9.18v5.32l4-2.7V6.6L5 9.17Z" fill="#4CBCC7"/><path d="m11 7.73-4.32 2.62 4.17 2.6 4.15-2.6-4-2.62Z" fill="#9A90C5"/><path d="m9 8.94-2.32 1.4L9 11.8V8.94Z" fill="#18759E"/><path d="m7 8.21 4 2.6v-5.2L7.02 3 7 8.21Z" fill="#D2D92B"/><path d="M9 9.59 7 8.21v-.33L9 6.6v3Z" fill="#50AE3C"/><path d="M11 7.73 8.48 9.26 11 10.83v-3.1Z" fill="#7E843B"/><path d="M9 8.94v.65l-.52-.33.52-.32Z" fill="#04663F"/></svg>
